widgets/eBookmark/images/btns/delete_selected.svg

<?xml version="1.0" encoding="UTF-8"?>
<svg width="16px" height="16px" viewBox="0 0 16 16" version="1.1" xmlns="http://www.w3.org/2000/svg" xmlns:xlink="http://www.w3.org/1999/xlink">
    <!-- Generator: Sketch 44.1 (41455) - http://www.bohemiancoding.com/sketch -->
    <title>Delete-Hover</title>
    <desc>Created with Sketch.</desc>
    <defs></defs>
    <g id="Bookmark" stroke="none" stroke-width="1" fill="none" fill-rule="evenodd">
        <g id="Bookmark_Editable-List-Edit-Select" transform="translate(-1394.000000, -180.000000)" fill="#C21712">
            <g id="Bookmark" transform="translate(1070.000000, 120.000000)">
                <g id="Button" transform="translate(20.000000, 60.000000)">
                    <g id="Delete-Hover" transform="translate(304.000000, 0.000000)">
                        <path d="M14.972598,5.43894389 L14.4340154,5.43894389 L14.4340154,14.9438944 C14.4340154,15.5247525 13.949291,16 13.35685,16 L3.12377944,16 C2.53133852,16 2.04661412,15.5247525 2.04661412,14.9438944 L2.04661412,5.43894389 L1.07716533,5.43894389 C0.484724397,5.43894389 0,4.96369637 0,4.38283828 C0,3.8019802 0.484724397,3.32673267 1.07716533,3.32673267 L4.7933857,3.32673267 C4.9549605,1.47854785 6.46299195,0 8.29417301,0 C10.1253541,0 11.6872438,1.47854785 11.7949603,3.32673267 L14.9187398,3.32673267 C15.5111807,3.32673267 15.9959051,3.8019802 15.9959051,4.38283828 C16.0497634,4.96369637 15.565039,5.43894389 14.972598,5.43894389 L14.972598,5.43894389 Z M8.29417301,1.68976898 C7.32472422,1.68976898 6.57070849,2.37623762 6.46299195,3.32673267 L10.1792123,3.32673267 C10.0176375,2.4290429 9.2636218,1.68976898 8.29417301,1.68976898 L8.29417301,1.68976898 Z M12.8182674,6.07260726 C12.8182674,5.80858086 12.7105508,5.59735974 12.548976,5.49174917 L3.93165344,5.49174917 C3.77007864,5.59735974 3.66236211,5.80858086 3.66236211,6.07260726 L3.66236211,13.8349835 C3.66236211,14.310231 4.03936997,14.679868 4.52409437,14.679868 L11.9565351,14.679868 C12.4412595,14.679868 12.8182674,14.310231 12.8182674,13.8349835 L12.8182674,6.07260726 L12.8182674,6.07260726 Z M10.1253541,6.4950495 L11.7411021,6.4950495 L11.7411021,13.8877888 L10.1253541,13.8877888 L10.1253541,6.4950495 L10.1253541,6.4950495 Z M7.43244075,6.4950495 L9.04818874,6.4950495 L9.04818874,13.8877888 L7.43244075,13.8877888 L7.43244075,6.4950495 L7.43244075,6.4950495 Z M4.73952743,6.4950495 L6.35527542,6.4950495 L6.35527542,13.8877888 L4.73952743,13.8877888 L4.73952743,6.4950495 L4.73952743,6.4950495 Z" id="Shape"></path>
                    </g>
                </g>
            </g>
        </g>
    </g>
</svg>

<svg width="16" height="16" xmlns="http://www.w3.org/2000/svg"><path d="M14.973 5.439h-.539v9.505A1.07 1.07 0 0 1 13.357 16H3.124a1.07 1.07 0 0 1-1.077-1.056V5.439h-.97A1.07 1.07 0 0 1 0 4.383a1.07 1.07 0 0 1 1.077-1.056h3.716C4.955 1.479 6.463 0 8.294 0s3.393 1.479 3.501 3.327h3.124a1.07 1.07 0 0 1 1.077 1.056c.054.58-.431 1.056-1.023 1.056zm-6.679-3.75c-.97 0-1.723.687-1.831 1.638h3.716c-.161-.898-.915-1.637-1.885-1.637zm4.524 4.384c0-.264-.107-.476-.269-.581H3.932c-.162.105-.27.317-.27.58v7.763c0 .475.377.845.862.845h7.433c.484 0 .861-.37.861-.845V6.073zm-2.693.422h1.616v7.393h-1.616V6.495zm-2.693 0h1.616v7.393H7.432V6.495zm-2.692 0h1.615v7.393H4.74V6.495z" fill="#C21712" fill-rule="evenodd"/></svg>
